X:1
T:Title
%%score { 1 | ( 2 3 ) }
L:1/8
M:6/8
K:F
V:1 treble nm="Grand Piano"
V:2 bass 
V:3 bass 
V:1
 z3 z2[Q:1/4=81] F | A>AA A2 G | F>FF F2 G | A>AA dcA | [EG]3- [EG]2 A/B/ | c>cc A2 [CEG] | %6
 [A,F]>[A,F][A,F] [DFB]3 |[M:1/8] [Fd] |[M:3/4] [Fd]<[Fc] [FA][Ec]/[EB]/- [EB][EG] | %9
[M:5/8] F-F- F3 |[M:1/8] c |[M:3/4] [Fd]>[Fd] [Fd] [Fd]2 [Fd] | d<c c c2 c | %13
 [Ec][EG] [FA][GB] [Ac][GB] | A4- AA | A>G A F2 A |[M:7/8] [DFB]>[DFB][DFB] [Fd]3 [Fd] | %17
[M:3/4] [Fd]<[Fc] [FA][Ec]/[EB]/- [EB][EG] |[M:5/8] F-F- F3 |] %19
V:2
 z3 z2 [F,A,C] | [F,CF]>[F,CF][F,CF] [F,CF]2 [C,B,C] | [F,A,C]>[F,A,C][F,A,C] [F,A,C]2 [F,B,C] | %3
 [F,CF]>[F,CF][F,CF] [F,B,F][F,A,F][F,CF] | z3 z2 .C | [F,A,F]>[F,A,F][F,A,F] [F,CF]2 C, | %6
 D,>D,D, B,,3 |[M:1/8] [B,,B,] |[M:3/4] [C,A,]<[C,A,] [C,C][C,C]/[C,C]/- [C,C][C,B,] | %9
[M:5/8] [F,A,]-[F,A,]- [F,A,]3 |[M:1/8] [F,A,F] |[M:3/4] [B,,B,]>[B,,B,] [B,,B,] [B,,B,]2 [B,,B,] | %12
 [F,A,F]<[F,A,F] [F,A,F] [F,A,F]2 [F,A,F] | [C,G,][C,C] [C,C][C,C] [C,C][C,C] | %14
 [F,CF]4- [F,CF][F,CF] | [F,CF]>[F,B,F] [F,CF] [F,A,C]2 [F,CF] | %16
[M:7/8] B,,>B,,B,, [B,,B,]3 [B,,B,] |[M:3/4] [C,A,]<[C,A,] [C,C][C,C]/[C,C]/- [C,C][C,B,] | %18
[M:5/8] [F,A,]-[F,A,]- [F,A,]3 |] %19
V:3
 x6 | x6 | x6 | x6 | [C,C]3- [C,C]2 [F,F]/-[F,A,F]/ | x6 | x6 |[M:1/8] x |[M:3/4] x6 |[M:5/8] x5 | %10
[M:1/8] x |[M:3/4] x6 | x6 | x6 | x6 | x6 |[M:7/8] x7 |[M:3/4] x6 |[M:5/8] x5 |] %19

